X:1
L:1/8
Q:1/4=120
M:4/4
K:A
|:""^Strathspey."" vA<A c>uA d2 (B>=G) | A<A c>A e2 (cA) | e2 cA d2 B=G | A<A ce (d<B) e2 :| 
 A<A ce =g2 (dB) | A<A ce a>b a>f | =g>a g>e d<g B<G | A<A c>e (d<B) e2 | A<A ce =g2 (dB) | 
 A<A ce a>b a>f | =g>a g>e d<g B<G | A>A =ge (d<B) e2 |]
